X: 55
T: No_150_An_Overhanging_Cloud.krn
%%abc-version 2.0
%%abcx-abcm2ps-target-version 5.9.1 (29 Sep 2008)
%%abc-creator hum2abc beta
%%abcx-conversion-date 2020/08/10 18:54:56
%%gracespace 0 6 6
%%humdrum-veritas 3085997025
%%humdrum-veritas-data 25608782
%%linebreak <none>
%%barnumbers 0
L: 1/8
M: 2/4
%%staves {1 2}
V: 1 clef=bass
V: 2 clef=bass
K: B
[V:1] [K:clef=bass][M:2/4]FF FF | 
[V:2] [K:clef=bass][M:2/4](3!accent!G,, z G,, (3!accent!G,, z G,, | 
[V:1] F4 ||  
[V:2] z4 ||  
[V:1] [M:3/4]DD D>CB,2 | 
[V:2] [M:3/4]z6 | 
[V:1] DF- FD D3/C/ | 
[V:2] z6 | 
[V:1] B,2B,3B, | 
[V:2] z6 | 
[V:1] B,6 ||  
[V:2] z6 ||  
[V:1] [M:2/4](3DFF (3FFD | 
[V:2] [M:2/4]z4 | 
[V:1] B,4 ||  
[V:2] z4 ||  
[V:1] [M:3/4]B,>F, (3D,F,F, (3F,G,G, ||  
[V:2] [M:3/4]z6 ||  
[V:1] [M:2/4]F,4 | 
[V:2] [M:2/4]z4 | 
[V:1] F,>D,B,,2 ||  
[V:2] z4 ||  
[V:1] [M:3/4]{/D,} D,F,- F,D, D,3/C,/ | 
[V:2] [M:3/4]z6 | 
[V:1] B,,2B,,3B,, | 
[V:2] z6 | 
[V:1] B,,6 |]  
[V:2] z6 |]  


